X: 21745
T: King Of The Clans
R: reel
M: 4/4
K: Gmajor
^c|d2GA (3Bcd ge|dedB AGEG|DGAG dGBG|cege dcBc|
dG (3Bcd edBd|gabg agef|~g3e dBge|1 dBAG EGG:|
|:f|g2fg egdf|gdBG AGEG|DGAG dGBG|cege dcBc|
[1 g2fg egdf|gdBG AGEG|DGBd gece|dBAc BGG:|
[2 gabg efge|dBgB AGEG|DGBd gece|dBAc BGG||

